!!!COM: Fux, Johann Joseph
!!!OMD: Gradus ad Parnassum Exercise
!!!YEC: CC0 1.0 Universal (Public Domain). Mark Gotham and FourScoreAndMore.org waive all rights to this document.
**kern	**kern	**kern
*part3	*part2	*part1
*staff3	*staff2	*staff1
*I"3	*I"2	*I"1
*I'Pno	*I'Pno	*I'Pno
!!LO:PB:g=z
*clefGv2	*clefG2	*clefG2
*k[]	*k[]	*k[]
!!LO:TX:omd:t=
*M4/4	*M4/4	*M4/4
=309	=309	=309
!	!	!LO:TX:a:t=Fig. 132; Species&colon; 3; Modal final&colon; d; Cantus firmus&colon; 2
4r	1d	1a
4D/	.	.
4F/	.	.
4E/	.	.
=310	=310	=310
4D/	1f	1a
4E/	.	.
4F/	.	.
4G/	.	.
=311	=311	=311
4A/	1e	1cc
4G/	.	.
4E/	.	.
4F/	.	.
=312	=312	=312
4G/	1d	1b
4D/	.	.
4G/	.	.
4F/	.	.
=313	=313	=313
4E/	1g	1b
4G/	.	.
4F/	.	.
4E/	.	.
!!LO:LB:g=z
=314	=314	=314
4D/	1f	1dd
4d\	.	.
4D/	.	.
4E/	.	.
=315	=315	=315
4F/	1a	1cc
4G/	.	.
4A/	.	.
4B\	.	.
=316	=316	=316
4c\	1g	1ee
4e\	.	.
4d\	.	.
4c\	.	.
=317	=317	=317
4d\	1f	1dd
4D/	.	.
4F/	.	.
4G/	.	.
=318	=318	=318
4A/	1e	1cc#X
4G/	.	.
4A/	.	.
4AA/	.	.
=319	=319	=319
1D	1d	1dd
==	==	==
*-	*-	*-
!!!software: music21 v.9.7.1
!!!software: music21 v.9.7.1
!!!software: MuseScore 3.4.2
!!!RDF**kern: > = above
!!!RDF**kern: < = below
